source/images/activity/apostrophecms-logo.svg

<svg fill="none" height="28" viewBox="0 0 28 28" width="28" xmlns="http://www.w3.org/2000/svg" xmlns:xlink="http://www.w3.org/1999/xlink"><linearGradient id="a" gradientUnits="userSpaceOnUse" x1="21.3006" x2="16.9626" y1="10.5807" y2="19.07"><stop offset="0" stop-color="#cc9300"/><stop offset=".48" stop-color="#ea433a"/><stop offset="1" stop-color="#b327bf"/></linearGradient><linearGradient id="b" gradientUnits="userSpaceOnUse" x1="11.5317" x2="7.5679" y1="2.80846" y2="10.5497"><stop offset="0" stop-color="#cc9300"/><stop offset=".26" stop-color="#ea433a"/><stop offset=".48" stop-color="#b327bf"/><stop offset=".76" stop-color="#66f"/><stop offset="1" stop-color="#00bf9a"/></linearGradient><linearGradient id="c" gradientUnits="userSpaceOnUse" x1="9.33542" x2="15.2969" y1="23.5924" y2="16.2318"><stop offset="0" stop-color="#b327bf"/><stop offset=".48" stop-color="#66f"/><stop offset="1" stop-color="#00c09a"/></linearGradient><g clip-rule="evenodd" fill-rule="evenodd"><path d="m13.319 27.642c-3.5985.5908-4.99493.376-6.44507-.1074-1.42812-.4842-2.66808-1.4048-3.54478-2.6317l-.16113-.1611c-.80563-1.1279-1.39642-2.4169-1.93351-5.7469l-.859345-5.5857c-.590797-3.6522-.4296701-5.04863.107418-6.49877.501011-1.41954 1.395067-2.6675 2.578027-3.59849l.21483-.16112c1.12789-.80564 2.4169-1.39643 5.69314-1.93352l5.47832-.859344c3.5985-.590797 4.9949-.3759618 6.445.107418 1.4282.484212 2.6681 1.404786 3.5448 2.631736l.1611.21483c.8057 1.12789 1.3965 2.4169 1.9336 5.74685l.8593 5.53201c.5908 3.6522.4297 5.0486-.1074 6.4988-.4835 1.4286-1.3809 2.6811-2.578 3.5985l-.2149.1611c-1.1279.8056-2.4169 1.3964-5.6931 1.9335z" fill="#000"/><path d="m19.4471 11.5883c-1.5098 0-2.7338 1.224-2.7338 2.7338s1.224 2.7338 2.7338 2.7338 2.7338-1.224 2.7338-2.7338-1.224-2.7338-2.7338-2.7338zm-4.0335 2.7338c0-2.2277 1.8058-4.0335 4.0335-4.0335s4.0335 1.8058 4.0335 4.0335-1.8058 4.0335-4.0335 4.0335-4.0335-1.8058-4.0335-4.0335z" fill="url(#a)"/><path d="m5.29551 6.93256c-.05749-.35578.18432-.69081.5401-.74831l6.06029-.97938c.3558-.0575.6908.18431.7483.5401l.9794 6.06033c.0575.3557-.1843.6908-.5401.7483l-6.06029.9794c-.35579.0575-.69082-.1844-.74831-.5401zm1.39252.43599.77117 4.77185 4.7719-.7711-.7712-4.77191z" fill="url(#b)"/><path d="m11.2807 15.2919c.2343-.0383.4708.0543.6169.2415l4.7801 6.1228c.1415.1812.1767.4236.0926.6375-.084.214-.2748.3676-.5018.404l-7.3581 1.1816c-.22637.0364-.45515-.0492-.60203-.2253-.14689-.176-.19015-.4164-.11384-.6326l2.57807-7.3044c.079-.2239.2738-.3869.5081-.4251zm.3226 1.9766-1.81911 5.1541 5.19201-.8337z" fill="url(#c)"/></g></svg>

<svg width="28" height="28" viewBox="0 0 28 28" fill="none" xmlns="http://www.w3.org/2000/svg">
<path fill-rule="evenodd" clip-rule="evenodd" d="M13.319 27.642C9.7205 28.2328 8.32407 28.018 6.87393 27.5346C5.44581 27.0504 4.20585 26.1298 3.32915 24.9029L3.16802 24.7418C2.36239 23.6139 1.7716 22.3249 1.23451 18.9949L0.375165 13.4092C-0.215632 9.757 -0.0545051 8.36057 0.482583 6.91043C0.983594 5.49089 1.87765 4.24293 3.06061 3.31194L3.27544 3.15082C4.40333 2.34518 5.69234 1.75439 8.96858 1.2173L14.4469 0.357956C18.0454 -0.232841 19.4418 -0.0180058 20.8919 0.465374C22.3201 0.949586 23.56 1.87016 24.4367 3.09711L24.5978 3.31194C25.4035 4.43983 25.9943 5.72884 26.5314 9.05879L27.3907 14.5908C27.9815 18.243 27.8204 19.6394 27.2833 21.0896C26.7998 22.5182 25.9024 23.7707 24.7053 24.6881L24.4904 24.8492C23.3625 25.6548 22.0735 26.2456 18.7973 26.7827L13.319 27.642Z" fill="black"/>
<path fill-rule="evenodd" clip-rule="evenodd" d="M19.4471 11.5883C17.9373 11.5883 16.7133 12.8123 16.7133 14.3221C16.7133 15.8319 17.9373 17.0559 19.4471 17.0559C20.9569 17.0559 22.1809 15.8319 22.1809 14.3221C22.1809 12.8123 20.9569 11.5883 19.4471 11.5883ZM15.4136 14.3221C15.4136 12.0944 17.2194 10.2886 19.4471 10.2886C21.6748 10.2886 23.4806 12.0944 23.4806 14.3221C23.4806 16.5498 21.6748 18.3556 19.4471 18.3556C17.2194 18.3556 15.4136 16.5498 15.4136 14.3221Z" fill="url(#paint0_linear)"/>
<path fill-rule="evenodd" clip-rule="evenodd" d="M5.29551 6.93256C5.23802 6.57678 5.47983 6.24175 5.83561 6.18425L11.8959 5.20487C12.2517 5.14737 12.5867 5.38918 12.6442 5.74497L13.6236 11.8053C13.6811 12.161 13.4393 12.4961 13.0835 12.5536L7.02321 13.533C6.66742 13.5905 6.33239 13.3486 6.2749 12.9929L5.29551 6.93256ZM6.68803 7.36855L7.4592 12.1404L12.2311 11.3693L11.4599 6.59739L6.68803 7.36855Z" fill="url(#paint1_linear)"/>
<path fill-rule="evenodd" clip-rule="evenodd" d="M11.2807 15.2919C11.515 15.2536 11.7515 15.3462 11.8976 15.5334L16.6777 21.6562C16.8192 21.8374 16.8544 22.0798 16.7703 22.2937C16.6863 22.5077 16.4955 22.6613 16.2685 22.6977L8.9104 23.8793C8.68403 23.9157 8.45525 23.8301 8.30837 23.654C8.16148 23.478 8.11822 23.2376 8.19453 23.0214L10.7726 15.717C10.8516 15.4931 11.0464 15.3301 11.2807 15.2919ZM11.6033 17.2685L9.78419 22.4226L14.9762 21.5889L11.6033 17.2685Z" fill="url(#paint2_linear)"/>
<defs>
<linearGradient id="paint0_linear" x1="21.3006" y1="10.5807" x2="16.9626" y2="19.07" gradientUnits="userSpaceOnUse">
<stop stop-color="#CC9300"/>
<stop offset="0.48" stop-color="#EA433A"/>
<stop offset="1" stop-color="#B327BF"/>
</linearGradient>
<linearGradient id="paint1_linear" x1="11.5317" y1="2.80846" x2="7.5679" y2="10.5497" gradientUnits="userSpaceOnUse">
<stop stop-color="#CC9300"/>
<stop offset="0.26" stop-color="#EA433A"/>
<stop offset="0.48" stop-color="#B327BF"/>
<stop offset="0.76" stop-color="#6666FF"/>
<stop offset="1" stop-color="#00BF9A"/>
</linearGradient>
<linearGradient id="paint2_linear" x1="9.33542" y1="23.5924" x2="15.2969" y2="16.2318" gradientUnits="userSpaceOnUse">
<stop stop-color="#B327BF"/>
<stop offset="0.48" stop-color="#6666FF"/>
<stop offset="1" stop-color="#00C09A"/>
</linearGradient>
</defs>
</svg>
